images_breeze_svg/cmd/32/gotopage.svg

<svg viewBox="0 0 32 32" xmlns="http://www.w3.org/2000/svg"><path d="m6 4v24h8v-1h-7v-22h11v7h7v4h1v-4-1l-7-7h-1z" fill="#4d4d4d"/><path d="m27.003906 22.5-5-5-.707031.707031 3.792969 3.792969h-10.089844v1h10.089844l-3.792969 3.792969.707031.707031 4-4z" fill="#1d99f3"/></svg>

<?xml version="1.0" encoding="UTF-8" standalone="no"?>
<svg
   xmlns:dc="http://purl.org/dc/elements/1.1/"
   xmlns:cc="http://creativecommons.org/ns#"
   xmlns:rdf="http://www.w3.org/1999/02/22-rdf-syntax-ns#"
   xmlns:svg="http://www.w3.org/2000/svg"
   xmlns="http://www.w3.org/2000/svg"
   xmlns:sodipodi="http://sodipodi.sourceforge.net/DTD/sodipodi-0.dtd"
   xmlns:inkscape="http://www.inkscape.org/namespaces/inkscape"
   viewBox="0 0 32 32"
   version="1.1"
   id="svg4"
   sodipodi:docname="gotopage.svg"
   inkscape:version="0.92.4 (unknown)"
   inkscape:export-filename="/home/rizmut/Dokumen/Rizmut/Github/libreoffice-style-breeze/images_breeze/cmd/32/gotopage.png"
   inkscape:export-xdpi="96"
   inkscape:export-ydpi="96">
  <metadata
     id="metadata10">
    <rdf:RDF>
      <cc:Work
         rdf:about="">
        <dc:format>image/svg+xml</dc:format>
        <dc:type
           rdf:resource="http://purl.org/dc/dcmitype/StillImage" />
        <dc:title></dc:title>
      </cc:Work>
    </rdf:RDF>
  </metadata>
  <defs
     id="defs8" />
  <sodipodi:namedview
     pagecolor="#ffffff"
     bordercolor="#666666"
     borderopacity="1"
     objecttolerance="10"
     gridtolerance="10"
     guidetolerance="10"
     inkscape:pageopacity="0"
     inkscape:pageshadow="2"
     inkscape:window-width="1360"
     inkscape:window-height="714"
     id="namedview6"
     showgrid="true"
     inkscape:zoom="10.429825"
     inkscape:cx="12.443198"
     inkscape:cy="9.16663"
     inkscape:window-x="0"
     inkscape:window-y="28"
     inkscape:window-maximized="1"
     inkscape:current-layer="svg4">
    <inkscape:grid
       type="xygrid"
       id="grid817" />
  </sodipodi:namedview>
  <path
     style="fill:#4d4d4d;fill-opacity:1;stroke:none"
     d="M 6 4 L 6 28 L 14 28 L 14 27 L 7 27 L 7 5 L 18 5 L 18 12 L 25 12 L 25 16 L 26 16 L 26 12 L 26 11 L 19 4 L 18 4 L 6 4 z "
     id="path2" />
  <path
     inkscape:connector-curvature="0"
     style="fill:#1d99f3;fill-opacity:1;stroke:none"
     d="m 27.003906,22.5 -5,-5 -0.707031,0.707031 L 25.089844,22 H 15 v 1 h 10.089844 l -3.792969,3.792969 0.707031,0.707031 4,-4 z"
     id="path71"
     class="ColorScheme-Text"
     sodipodi:nodetypes="ccccccccccc" />
</svg>
